X:1
T:Hallelujah Praise the Lamb
T:Hallelujah Praise the Lamb
T:Dawn Thomas, Gary McSpadden & Pam Thum, 1989 Arrangement: Larry Johnson, 2012
C:Dawn Thomas, Gary McSpadden & Pam Thum 1989
Z:All Rights Reserved
L:1/8
Q:1/4=80
M:4/4
K:F
V:1 treble nm="Voice"
%%MIDI program 54
V:1
"^Worshipfully" z4 z2 z C/C/ |"F" CFFG GAAF |"C7" C C3- C2 z2 |"Gm7" DGGA BA"C7"Bc |"F" A6 z F | %5
w: from the|mo ment man first dis o beyed the|Fa ther _|we were then held cap tive by our|sins the|
"C" Gc c>d"Bb/D" c G2 F |"A7/C#" A3 G"Dm" F2 z D |"G7sus4" DEFG"G7" A>D FA |"C7" G6 z C/C/ | %9
w: law of God de mand ed a|sac ri fice re|stor ing to Him self His own a|gain so the|
"F" CFFG GAAF |"C7" C C3- C2 z C |"Gm7" DGGA BA"C7"Bc |"F" A6 z c |"F7" cFGA"Bb" c B2 B | %14
w: Lamb His on ly Son was free ly|of fered _ a|tone ment for our sins for ev er|more He,|in no cent and ho ly still|
"A" AEFG"Dm" B A2 A |"F/G" AAFA"G7" AFEF |"C7sus4" G8- |"C7" G4 z2"Bb/C" FG |"F" A4- AG"Bb/C" F>D | %19
w: God _ and God on ly could|ran some and re deem ua back a|gain|_ Hal le|lu _ jah praise the|
"F" C4 z2 F"A7/E"G |"Dm" A4-"G7" AG F>F |"C7sus4" G4 z2"C7" FG |"F" A4- AG"Bb/C" F>D | %23
w: Lamb! Hal le|lu _ jah prasie the|Lamb! my heart|sings _ His praise a|
"F" C4 z2"Dm" FG |"F/C" A4- AG"Bb/C" F>E |"F" F8- | F6 z C ||[K:Fmin]"Fm" CFFG GccF | %28
w: gain Ha le|lu _ jah praise the|Lamb|_ so|to the cross they car ried Him with|
"Bbm" DBBA AGGG |"Db" Fddc cBBA |"C+" A2"C7" G4 z C |"Fm" CFFG GccC |"Bbm" Dddc cBBA | %33
w: all our guilt and all our sin the|Lamb of God was slain for our trans|gres sions and|on the cross those nail pierced hands reached|up to God and down to man and|
"Db" Affe eddc |"Gb7" cBBA"Fm" c3 F |"Bbm" FBBc dcdf |"Eb7sus4" e4-"Eb7" e2 z E |"Ab" EAAB BccA | %38
w: just as if I'd nev er sinned He|took me in His arms; em|brac ing me He will ing ly for|gave _ for|mer cy grace and love that knows no|
"Eb7sus4" E4-"Eb7" E2 z E |"Bbm" FBBc dc"Db/Eb"de |"Ab" c6 z e |"Ab7" eABc"D9" e d2 c | %42
w: bounds _ though|guilt y and con demned I now am|free for|ev er I'm for giv en for|
"C" cGAB"Fm" d c2 c |"Fm7" cc c2"Bb7" cAGA |"Eb7sus4" B8- |"Eb7" B4 z2"Db/Eb" AB | %46
w: Christ the Lord is ris en and|risen with Him we shall one day|be|_ Hal le|
"Ab" c4- cB"Db/Eb" A>F |"Ab" E4 z2"C7/G" AB |"Fm" c4- cB A>A |"Eb7" B4 z2"Ab/Eb" AB | %50
w: lu _ jah praise the|Lamb Hal le|lu _ jah praise the|Lamb my heart|
"Ab" c4- cB"Db/Eb" A>F |"Ab" E4"Fm" z2 AB |"Ab/Eb" c4- cB"Db/Eb" A>G |"Ab" A8- | A6 z2 |] %55
w: sings _ His praise a|gain hal le|lu _ jah praise the|lamb|_|

